X: 39573
T: Teddy's Polka
R: barndance
M: 4/4
K: Gmajor
Bc|:d2de dBG2|d2de dBG2|A2AB AG FE|DE FG AB ce|d2de dBG2|d2de dBG2|A2AB AG FA|G2B2G4:|
cB cd ed c2|BA Bc dc B2|A^G AB cB Ac|BA Bc d4|ed cd ed c2|dc Bc dc B2|A^G AB cA FA|G2B2G4|
K:Gm
cB cd ed c2|BA Bc dc B2|A^G AB cB Ac|BA Bc d4|ed cd edc2|dc Bc dcB2|A^G AB cA ^FA|G2B2G4||

